X: 10377
T: Donalbane
R: strathspey
M: 4/4
K: Dmajor
|:A>d|A2 A>G F>GA<F|D>AF<A (3BBB A>d|(3AAA (3AAB A>G F2|(3EEE F>A B2:|
|:A>c|d>cd>B A>F D2|d>cd>B A2 (3ABc|1 d>c d2 A>F D2|
E2 F>A B2:|2 d>fB>d A>dF>D|(3EEE F>A B2||

